X: 36
T: Zoushang haobi yigu feng
%%abc-version 2.0
%%abcx-abcm2ps-target-version 5.9.1 (29 Sep 2008)
%%abc-creator hum2abc beta
%%abcx-conversion-date 2013/10/02 07:52:29
%%abc-edited-by Helmut Schaffrath
%%humdrum-veritas 3789756150
%%humdrum-veritas-data 4281009913
%%continueall 1
%%barnumbers 0
L: 1/8
M: 2/4
K: D
eB2A/ B/ [I:setbarnb 1]| 
eA2F | 
F E D B, | 
B4 | 
eB2A/ B/ | 
eA2F | 
F E D B, | 
E4 |]  



